snes/art/snes.svg

<?xml version="1.0" encoding="utf-8"?>
<!-- Generator: Adobe Illustrator 16.0.3, SVG Export Plug-In . SVG Version: 6.00 Build 0)  -->
<!DOCTYPE svg PUBLIC "-//W3C//DTD SVG 1.1//EN" "http://www.w3.org/Graphics/SVG/1.1/DTD/svg11.dtd">
<svg version="1.1" id="Ebene_1" xmlns="http://www.w3.org/2000/svg" xmlns:xlink="http://www.w3.org/1999/xlink" x="0px" y="0px"
	 width="566.929px" height="98.437px" viewBox="0 0 566.929 98.437" enable-background="new 0 0 566.929 98.437"
	 xml:space="preserve">
<g>
	<g>
		<path id="path2842" fill="#01954B" d="M59.308,59.926c0.002,8.188-13.273,14.827-29.652,14.827
			C13.279,74.755,0.001,68.117,0,59.928c0-0.001,0-0.001,0-0.002c-0.001-8.189,13.274-14.828,29.652-14.829
			c16.377,0,29.655,6.639,29.656,14.826C59.308,59.925,59.308,59.925,59.308,59.926z"/>
		<path id="path3624" fill="#F9EC2B" d="M110.379,83.357c0.002,8.188-13.273,14.828-29.651,14.828
			c-16.377,0-29.655-6.637-29.657-14.825c0-0.002,0-0.002,0-0.003c-0.002-8.188,13.273-14.828,29.651-14.829
			c16.379,0,29.655,6.637,29.657,14.826C110.379,83.356,110.379,83.356,110.379,83.357z"/>
		<path id="path3644" fill="#323B98" d="M60.398,0.252c-14.947,0-27.095,11.946-27.449,26.822c0.621-0.043,1.239-0.069,1.871-0.069
			c15.169,0,27.466,12.309,27.466,27.492c0,0.227-0.011,0.446-0.017,0.671c14.3-0.96,25.595-12.867,25.595-27.424
			C87.864,12.561,75.567,0.252,60.398,0.252L60.398,0.252z"/>
		<path id="path3897" fill="#EB2D2F" d="M112.393,24.334c-15.165,0-27.458,12.301-27.458,27.474c0,0.338,0.005,0.68,0.017,1.013
			c0.367-0.014,0.728-0.032,1.098-0.032c14.824,0,26.905,11.759,27.441,26.46c14.659-0.572,26.359-12.631,26.359-27.44
			C139.851,36.635,127.558,24.334,112.393,24.334L112.393,24.334z"/>
	</g>
	<path id="polyline2177" fill="#4C504E" d="M186.893,0c-3.758,0-7.412,3.09-8.083,6.918v0.069v0.068v0.069l-0.068,0.068V7.33v0.068
		l-0.069,0.137v0.138l-0.069,0.137v0.206l-0.068,0.137v0.206l-0.069,0.205l-0.069,0.206L178.33,9.18l-0.137,0.479l-0.067,0.479
		l-0.138,0.479l-0.069,0.547l-0.138,0.548l-0.136,0.616l-0.138,0.548l-0.205,1.165l-0.138,0.617l-0.137,0.547l-0.067,0.548
		l-0.138,0.547l-0.136,0.548l-0.069,0.548l-0.069,0.479l-0.138,0.411l-0.069,0.479v0.206l-0.067,0.137v0.206v0.137l-0.068,0.206
		v0.137v0.137l-0.069,0.137v0.069v0.068c-0.07,1.675,0.163,3.96,0.685,4.385c0.665,3.688,12.958,20.758,12.604,23.358
		c-0.332,2.606-1.781,10.276-1.781,10.276c-0.446,2.585-2.21,4.657-4.794,4.657c-2.586,0-4.351-2.065-3.905-4.657l2.329-12.741
		h-9.179l-3.083,17.674c-0.628,3.588,1.801,6.438,5.411,6.438h13.085c3.624,0,7.076-2.85,7.739-6.438c0,0,3.372-16.508,3.356-17.674
		c-0.013-1.174-0.341-1.302-0.341-1.302c0-1.342-10.939-19.4-12.056-20.072c-0.481-0.281-0.877-2.069-0.892-3.15
		c-0.021-1.074,1.439-8.289,1.439-8.289c0.444-2.585,2.894-4.658,5.48-4.658c2.585,0,3.664,2.073,3.219,4.658l-1.986,11.439h9.247
		l3.22-17.194C206.663,3.09,204.213,0,200.455,0H186.893z M212.1,0l-10.959,63.16c-0.628,3.588,1.802,6.438,5.412,6.438h13.084
		c3.624,0,7.138-2.85,7.809-6.438L239.158,0h-8.219l-11.167,61.377c-0.163,0.892-1.028,1.645-1.917,1.645h-6.509
		c-0.911,0-1.519-0.747-1.371-1.645L220.869,0H212.1z M243.611,0L230.39,69.597h8.768l6.029-31.51h11.166
		c3.632,0,7.074-2.871,7.739-6.438l4.795-24.73C269.611,3.083,267.167,0,263.41,0h-11.03H243.611z M274.917,0l-13.699,69.597h19.727
		l1.37-8.631h-9.727l3.974-23.496h9.726l1.37-7.261h-9.725l4.315-21.578h9.728L293.344,0H274.917z M298.481,0L285.33,69.597h8.768
		l5.96-31.51h6.235c0.818,0.763,0.915,2.171,1.024,2.877c0.164,1.025,0.334,2.333,0.208,3.357
		c-0.114,1.017-4.797,25.276-4.797,25.276h8.769c0,0,4.933-26.428,4.933-26.852c0.014-0.431,0-1.785-0.478-2.534
		c-0.322-0.48-0.873-1.583-1.509-1.986c-1.223-0.785-2.603-1.303-2.603-1.303h-0.62c2.512-0.989,7.24-2.618,7.744-5.274l4.794-24.73
		C324.486,3.083,322.037,0,318.279,0H298.481z M345.405,0l-13.222,69.597h10.071l8.15-40.346l3.221,40.346h8.769L375.614,0h-10.069
		l-6.851,36.375L354.173,0H345.405z M380.203,0l-13.22,69.597h8.769L388.97,0H380.203z M393.559,0L380.34,69.597h10.139
		l8.151-40.346l3.22,40.346h8.769L423.84,0h-10.139l-6.781,36.375L402.398,0H393.559z M427.538,0l-1.646,8.632h5.481l-10.824,60.965
		h10.003l11.028-60.965h5.274L448.225,0H427.538z M451.649,0l-13.698,69.597h19.726l1.371-8.631h-9.726l4.042-23.496h9.725
		l1.371-7.261h-9.726l4.245-21.578h9.728L470.077,0H451.649z M473.913,0l-13.22,69.597h10.137l8.153-40.346l3.219,40.346h8.768
		L504.193,0h-10.139l-6.782,36.375L482.749,0H473.913z M508.782,0l-13.223,69.597h20.003c3.633,0,7.137-2.85,7.81-6.438
		l10.616-56.241C534.709,3.083,532.268,0,528.51,0H508.782z M546.388,0c-3.76,0-7.344,3.09-8.015,6.918l-9.798,56.241
		c-0.635,3.588,1.74,6.438,5.347,6.438h14.452c3.624,0,7.138-2.85,7.812-6.438l10.615-56.241C567.529,3.09,565.072,0,561.322,0
		H546.388z M516.248,8.015h4.042c2.585,0,4.349,2.073,3.903,4.658l-8.631,45.554c-0.451,2.585-2.962,4.727-5.548,4.727h-3.973
		L516.248,8.015z M551.525,8.015h0.275c2.585,0,4.281,2.073,3.834,4.658l-8.217,45.554c-0.448,2.577-2.829,4.727-5.412,4.727
		c-2.587,0-3.666-2.142-3.223-4.727l8.153-45.554l0.067-0.206l0.07-0.206l0.067-0.274l0.068-0.206l0.07-0.274l0.067-0.206
		l0.07-0.206l0.134-0.205l0.069-0.206l0.138-0.206l0.068-0.205l0.138-0.206l0.138-0.137l0.135-0.205l0.138-0.206l0.205-0.137
		l0.138-0.138l0.137-0.137l0.205-0.137l0.206-0.137l0.138-0.137l0.204-0.138l0.206-0.068l0.207-0.137l0.137-0.069l0.273-0.069
		l0.205-0.068h0.204l0.206-0.069h0.275L551.525,8.015z M252.036,8.289h4.248c0.933,0,2.911,2.136,2.741,3.083l-3.632,17.194
		c-0.169,0.89-1.37,2.945-2.258,2.945h-5.14h-0.068h-0.068l-0.069-0.068h-0.067h-0.069h-0.069h-0.069v-0.069h-0.069h-0.068
		l-0.07-0.068h-0.068l-0.068-0.069l-0.068-0.068h-0.068V31.1l-0.069-0.068l-0.069-0.069v-0.069l-0.068-0.068l-0.07-0.069v-0.068
		V30.62l-0.068-0.068v-0.069v-0.068l-0.07-0.069v-0.068c0-0.114-0.012-0.285,0-0.412l4.111-21.03
		C251.111,8.527,251.571,8.289,252.036,8.289z M306.631,8.289h0.07h0.068h0.069h0.068h3.974c0.933,0,2.923,2.136,2.738,3.083
		l-3.632,17.125c-0.159,0.897-2.389,3.014-3.286,3.014h-3.768c-0.777,0-1.314-0.511-1.369-1.231c0-0.114-0.016-0.278,0-0.412
		l4.042-21.03l0.067-0.069l0.07-0.068l0.134-0.069h0.068l0.069-0.069l0.068-0.068h0.069l0.068-0.069h0.07l0.136-0.068h0.067h0.068
		h0.067V8.289z M167.438,75.626v22.811h391.005V75.626H167.438z M454.872,78.023h0.066h0.067h0.07h0.067h0.068h3.017
		c0.811,0,1.395,0.651,1.232,1.507l-0.755,3.838h-1.848l0.409-2.535c0.094-0.573-0.244-1.029-0.823-1.029
		c-0.571,0-1.135,0.454-1.232,1.029l-0.34,1.85c-0.058,0.11,0.114,0.629,0.204,0.686c0.254,0.146,2.671,4.153,2.671,4.451
		c0.058,0.149,0.09,0.22,0.067,0.275c-0.069,0.501-0.753,3.903-0.753,3.903c-0.147,0.781-0.907,1.438-1.712,1.438h-2.877
		c-0.799,0-1.313-0.657-1.165-1.438l0.686-3.903h1.988l-0.479,2.809c-0.092,0.571,0.239,1.095,0.818,1.095
		c0.554,0,1.144-0.52,1.237-1.095l0.409-2.261c-0.367-0.945-2.791-4.388-2.946-5.207c-0.106-0.092-0.152-0.587-0.136-0.959
		c0.021-0.407,0.547-2.946,0.547-2.946h0.07v-0.068v-0.067v-0.068l0.067-0.138v-0.067l0.066-0.07v-0.068l0.069-0.067v-0.068
		l0.068-0.067l0.07-0.07v-0.067h0.067l0.07-0.068l0.067-0.07l0.068-0.067v-0.07h0.069l0.066-0.067l0.067-0.068h0.07l0.068-0.067
		h0.069l0.068-0.068h0.067h0.138L454.872,78.023z M470.625,78.023h2.467l0.342,5.824l3.15-5.824h2.468l-5.07,8.906l-1.233,6.507
		h-2.191l1.097-6.988L470.625,78.023z M493.026,78.023h0.067h0.07h0.067h0.07h0.067h3.013c0.812,0,1.381,0.651,1.233,1.507
		l-0.754,3.838h-1.85l0.413-2.535c0.091-0.573-0.243-1.029-0.822-1.029c-0.574,0-1.144,0.454-1.233,1.029l-0.343,1.85
		c-0.072,0.11,0.092,0.629,0.205,0.686c0.242,0.146,2.671,4.153,2.671,4.451c0.072,0.149,0.07,0.22,0.07,0.275
		c-0.094,0.501-0.686,3.903-0.686,3.903c-0.147,0.781-0.915,1.438-1.714,1.438h-2.944c-0.798,0-1.314-0.657-1.167-1.438l0.686-3.903
		h1.987l-0.479,2.809c-0.092,0.571,0.264,1.095,0.823,1.095c0.571,0,1.119-0.52,1.232-1.095l0.41-2.261
		c-0.374-0.945-2.787-4.388-2.945-5.207c-0.105-0.092-0.149-0.587-0.136-0.959c0.021-0.407,0.548-2.946,0.548-2.946l0.067-0.068
		v-0.067v-0.068l0.068-0.138v-0.067l0.069-0.07v-0.068l0.068-0.067v-0.068l0.069-0.067l0.068-0.07v-0.067h0.07l0.065-0.068
		l0.068-0.07l0.069-0.067l0.068-0.07l0.067-0.067l0.07-0.068h0.068l0.069-0.067h0.068l0.067-0.068h0.068h0.136L493.026,78.023z
		 M508.986,78.023h4.591l-0.344,1.851h-1.165l-2.396,13.563h-2.26l2.396-13.563h-1.163L508.986,78.023z M526.934,78.023h4.109
		l-0.344,1.851h-2.124l-0.956,4.864h2.191l-0.344,1.574h-2.124l-0.889,5.206h2.121l-0.271,1.918h-4.385L526.934,78.023z
		 M543.853,78.023h2.535l0.409,8.906l3.906-8.836l2.465-0.07l-2.601,15.413h-1.918l1.232-8.15l-3.426,8.15h-1.371l-0.409-8.358
		l-1.508,8.358h-2.262L543.853,78.023z M175.932,78.573h4.042l-0.275,1.916h-2.191l-0.89,4.797h2.124l-0.275,1.644h-2.192
		l-0.821,5.207h2.123l-0.343,1.917h-4.384L175.932,78.573z M194.838,78.573h1.918l1.027,8.083l1.506-8.083h2.262l-2.947,15.48
		h-1.917l-0.754-8.976l-1.78,8.976h-2.262L194.838,78.573z M215.389,78.573h4.521l-0.273,1.916h-1.165l-2.466,13.564h-2.19
		l2.396-13.564h-1.233L215.389,78.573z M235.323,78.573h4.11l-0.343,1.916h-2.124l-0.959,4.797h2.124l-0.274,1.644h-2.123
		l-0.89,5.207h2.123l-0.273,1.917h-4.384L235.323,78.573z M254.641,78.573h4.383c0.813,0,1.327,0.719,1.165,1.574l-1.027,5.48
		c-0.114,0.593-1.157,1.078-1.714,1.302h0.138h0.068h0.07v0.068h0.068h0.07h0.066h0.07l0.068,0.067h0.068h0.068h0.07v0.068h0.068
		h0.07v0.07h0.068c0.092,0.165,0.136,0.659,0.136,0.753c0,0.092-1.097,6.097-1.097,6.097h-1.986c0,0,1.061-5.394,1.097-5.617
		c0.022-0.24-0.026-0.529-0.068-0.753c-0.016-0.166-0.024-0.45-0.206-0.618h-1.371l-1.301,6.988h-1.987L254.641,78.573z
		 M274.231,78.573h4.589l-0.273,1.916h-1.163l-2.467,13.564h-2.192l2.397-13.564h-1.232L274.231,78.573z M297.042,78.573h2.604
		l-0.822,15.48h-2.604l0.342-3.563h-1.574l-1.303,3.563h-2.327L297.042,78.573z M315.266,78.573h1.986l-2.947,15.48h-1.918
		L315.266,78.573z M332.937,78.573h1.92l1.026,8.083l1.509-8.083h2.191l-2.877,15.48h-1.986l-0.685-8.976l-1.784,8.976h-2.258
		L332.937,78.573z M355.612,78.573h2.535l0.409,8.974l3.908-8.905h2.463l-2.602,15.412h-1.917l1.232-8.152l-3.427,8.152h-1.37
		l-0.409-8.356l-1.507,8.356h-2.193L355.612,78.573z M380.478,78.573h4.042l-0.276,1.916h-2.191l-0.889,4.797h2.123l-0.275,1.644
		h-2.191l-0.89,5.207h2.19l-0.342,1.917h-4.315L380.478,78.573z M400.342,78.573h1.918l1.028,8.083l1.507-8.083h2.191l-2.875,15.48
		h-1.918l-0.755-8.976l-1.782,8.976h-2.26L400.342,78.573z M420.688,78.573h4.589l-0.342,1.916h-1.163l-2.399,13.564h-2.193
		l2.399-13.564h-1.232L420.688,78.573z M256.491,80.42c-0.108,0-0.198,0.064-0.276,0.138l-0.89,4.657c0,0.038,0,0.032,0,0.07
		c0,0.149,0.104,0.273,0.274,0.273h0.821c0.204,0,0.717-0.411,0.755-0.617l0.751-3.836c0.036-0.22-0.342-0.686-0.547-0.686H256.491z
		 M297.042,85.078l-1.437,3.905h1.095L297.042,85.078z"/>
</g>
</svg>

<?xml version="1.0" standalone="no"?>
<!DOCTYPE svg PUBLIC "-//W3C//DTD SVG 1.1//EN" "http://www.w3.org/Graphics/SVG/1.1/DTD/svg11.dtd">
<svg width="100%" height="100%" viewBox="0 0 567 99" version="1.1" xmlns="http://www.w3.org/2000/svg" xmlns:xlink="http://www.w3.org/1999/xlink" xml:space="preserve" style="fill-rule:evenodd;clip-rule:evenodd;stroke-linejoin:round;stroke-miterlimit:1.41421;">
    <g>
        <g>
            <path id="path2842" d="M59.308,59.926C59.31,68.114 46.035,74.753 29.656,74.753C13.279,74.755 0.001,68.117 0,59.928C0,59.927 0,59.927 0,59.926C-0.001,51.737 13.274,45.098 29.652,45.097C46.029,45.097 59.307,51.736 59.308,59.923C59.308,59.925 59.308,59.925 59.308,59.926Z" style="fill:rgb(1,149,75);fill-rule:nonzero;"/>
            <path id="path3624" d="M110.379,83.357C110.381,91.545 97.106,98.185 80.728,98.185C64.351,98.185 51.073,91.548 51.071,83.36C51.071,83.358 51.071,83.358 51.071,83.357C51.069,75.169 64.344,68.529 80.722,68.528C97.101,68.528 110.377,75.165 110.379,83.354C110.379,83.356 110.379,83.356 110.379,83.357Z" style="fill:rgb(249,236,43);fill-rule:nonzero;"/>
            <path id="path3644" d="M60.398,0.252C45.451,0.252 33.303,12.198 32.949,27.074C33.57,27.031 34.188,27.005 34.82,27.005C49.989,27.005 62.286,39.314 62.286,54.497C62.286,54.724 62.275,54.943 62.269,55.168C76.569,54.208 87.864,42.301 87.864,27.744C87.864,12.561 75.567,0.252 60.398,0.252Z" style="fill:rgb(50,59,152);fill-rule:nonzero;"/>
            <path id="path3897" d="M112.393,24.334C97.228,24.334 84.935,36.635 84.935,51.808C84.935,52.146 84.94,52.488 84.952,52.821C85.319,52.807 85.68,52.789 86.05,52.789C100.874,52.789 112.955,64.548 113.491,79.249C128.15,78.677 139.85,66.618 139.85,51.809C139.851,36.635 127.558,24.334 112.393,24.334Z" style="fill:rgb(235,45,47);fill-rule:nonzero;"/>
        </g>
        <path id="polyline2177" d="M186.893,0C183.135,0 179.481,3.09 178.81,6.918L178.81,7.124L178.742,7.192L178.742,7.398L178.673,7.535L178.673,7.673L178.604,7.81L178.604,8.016L178.536,8.153L178.536,8.359L178.467,8.564L178.398,8.77L178.33,9.18L178.193,9.659L178.126,10.138L177.988,10.617L177.919,11.164L177.781,11.712L177.645,12.328L177.507,12.876L177.302,14.041L177.164,14.658L177.027,15.205L176.96,15.753L176.822,16.3L176.686,16.848L176.617,17.396L176.548,17.875L176.41,18.286L176.341,18.765L176.341,18.971L176.274,19.108L176.274,19.451L176.206,19.657L176.206,19.931L176.137,20.068L176.137,20.205C176.067,21.88 176.3,24.165 176.822,24.59C177.487,28.278 189.78,45.348 189.426,47.948C189.094,50.554 187.645,58.224 187.645,58.224C187.199,60.809 185.435,62.881 182.851,62.881C180.265,62.881 178.5,60.816 178.946,58.224L181.275,45.483L172.096,45.483L169.013,63.157C168.385,66.745 170.814,69.595 174.424,69.595L187.509,69.595C191.133,69.595 194.585,66.745 195.248,63.157C195.248,63.157 198.62,46.649 198.604,45.483C198.591,44.309 198.263,44.181 198.263,44.181C198.263,42.839 187.324,24.781 186.207,24.109C185.726,23.828 185.33,22.04 185.315,20.959C185.294,19.885 186.754,12.67 186.754,12.67C187.198,10.085 189.648,8.012 192.234,8.012C194.819,8.012 195.898,10.085 195.453,12.67L193.467,24.109L202.714,24.109L205.934,6.915C206.663,3.09 204.213,0 200.455,0L186.893,0ZM212.1,0L201.141,63.16C200.513,66.748 202.943,69.598 206.553,69.598L219.637,69.598C223.261,69.598 226.775,66.748 227.446,63.16L239.158,0L230.939,0L219.772,61.377C219.609,62.269 218.744,63.022 217.855,63.022L211.346,63.022C210.435,63.022 209.827,62.275 209.975,61.377L220.869,0L212.1,0ZM243.611,0L230.39,69.597L239.158,69.597L245.187,38.087L256.353,38.087C259.985,38.087 263.427,35.216 264.092,31.649L268.887,6.919C269.611,3.083 267.167,0 263.41,0L252.38,0L243.611,0ZM274.917,0L261.218,69.597L280.945,69.597L282.315,60.966L272.588,60.966L276.562,37.47L286.288,37.47L287.658,30.209L277.933,30.209L282.248,8.631L291.976,8.631L293.344,0L274.917,0ZM298.481,0L285.33,69.597L294.098,69.597L300.058,38.087L306.293,38.087C307.111,38.85 307.208,40.258 307.317,40.964C307.481,41.989 307.651,43.297 307.525,44.321C307.411,45.338 302.728,69.597 302.728,69.597L311.497,69.597C311.497,69.597 316.43,43.169 316.43,42.745C316.444,42.314 316.43,40.96 315.952,40.211C315.63,39.731 315.079,38.628 314.443,38.225C313.22,37.44 311.84,36.922 311.84,36.922L311.22,36.922C313.732,35.933 318.46,34.304 318.964,31.648L323.758,6.918C324.486,3.083 322.037,0 318.279,0L298.481,0ZM345.405,0L332.183,69.597L342.254,69.597L350.404,29.251L353.625,69.597L362.394,69.597L375.614,0L365.545,0L358.694,36.375L354.173,0L345.405,0ZM380.203,0L366.983,69.597L375.752,69.597L388.97,0L380.203,0ZM393.559,0L380.34,69.597L390.479,69.597L398.63,29.251L401.85,69.597L410.619,69.597L423.84,0L413.701,0L406.92,36.375L402.398,0L393.559,0ZM427.538,0L425.892,8.632L431.373,8.632L420.549,69.597L430.552,69.597L441.58,8.632L446.854,8.632L448.225,0L427.538,0ZM451.649,0L437.951,69.597L457.677,69.597L459.048,60.966L449.322,60.966L453.364,37.47L463.089,37.47L464.46,30.209L454.734,30.209L458.979,8.631L468.707,8.631L470.077,0L451.649,0ZM473.913,0L460.693,69.597L470.83,69.597L478.983,29.251L482.202,69.597L490.97,69.597L504.193,0L494.054,0L487.272,36.375L482.749,0L473.913,0ZM508.782,0L495.559,69.597L515.562,69.597C519.195,69.597 522.699,66.747 523.372,63.159L533.988,6.918C534.709,3.083 532.268,0 528.51,0L508.782,0ZM546.388,0C542.628,0 539.044,3.09 538.373,6.918L528.575,63.159C527.94,66.747 530.315,69.597 533.922,69.597L548.374,69.597C551.998,69.597 555.512,66.747 556.186,63.159L566.801,6.918C567.529,3.09 565.072,0 561.322,0L546.388,0ZM516.248,8.015L520.29,8.015C522.875,8.015 524.639,10.088 524.193,12.673L515.562,58.227C515.111,60.812 512.6,62.954 510.014,62.954L506.041,62.954L516.248,8.015ZM551.525,8.015L551.8,8.015C554.385,8.015 556.081,10.088 555.634,12.673L547.417,58.227C546.969,60.804 544.588,62.954 542.005,62.954C539.418,62.954 538.339,60.812 538.782,58.227L546.935,12.673L547.002,12.467L547.072,12.261L547.139,11.987L547.207,11.781L547.277,11.507L547.344,11.301L547.414,11.095L547.548,10.89L547.617,10.684L547.755,10.478L547.823,10.273L547.961,10.067L548.099,9.93L548.234,9.725L548.372,9.519L548.577,9.382L548.715,9.244L548.852,9.107L549.057,8.97L549.263,8.833L549.401,8.696L549.605,8.558L549.811,8.49L550.018,8.353L550.155,8.284L550.428,8.215L550.633,8.147L550.837,8.147L551.043,8.078L551.318,8.078L551.525,8.015ZM252.036,8.289L256.284,8.289C257.217,8.289 259.195,10.425 259.025,11.372L255.393,28.566C255.224,29.456 254.023,31.511 253.135,31.511L247.995,31.511L247.927,31.511L247.859,31.511L247.79,31.443L247.723,31.443L247.654,31.443L247.585,31.443L247.516,31.443L247.516,31.374L247.447,31.374L247.379,31.374L247.309,31.306L247.241,31.306L247.173,31.237L247.105,31.169L247.037,31.169L247.037,31.1L246.968,31.032L246.899,30.963L246.899,30.894L246.831,30.826L246.761,30.757L246.761,30.689L246.761,30.62L246.693,30.552L246.693,30.483L246.693,30.415L246.623,30.346L246.623,30.278C246.623,30.164 246.611,29.993 246.623,29.866L250.734,8.836C251.111,8.527 251.571,8.289 252.036,8.289ZM306.631,8.289L310.88,8.289C311.813,8.289 313.803,10.425 313.618,11.372L309.986,28.497C309.827,29.394 307.597,31.511 306.7,31.511L302.932,31.511C302.155,31.511 301.618,31 301.563,30.28C301.563,30.166 301.547,30.002 301.563,29.868L305.605,8.838L305.672,8.769L305.742,8.701L305.876,8.632L305.944,8.632L306.013,8.563L306.081,8.495L306.15,8.495L306.218,8.426L306.288,8.426L306.424,8.358L306.626,8.358L306.626,8.289L306.631,8.289ZM167.438,75.626L167.438,98.437L558.443,98.437L558.443,75.626L167.438,75.626ZM454.872,78.023L458.227,78.023C459.038,78.023 459.622,78.674 459.459,79.53L458.704,83.368L456.856,83.368L457.265,80.833C457.359,80.26 457.021,79.804 456.442,79.804C455.871,79.804 455.307,80.258 455.21,80.833L454.87,82.683C454.812,82.793 454.984,83.312 455.074,83.369C455.328,83.515 457.745,87.522 457.745,87.82C457.803,87.969 457.835,88.04 457.812,88.095C457.743,88.596 457.059,91.998 457.059,91.998C456.912,92.779 456.152,93.436 455.347,93.436L452.47,93.436C451.671,93.436 451.157,92.779 451.305,91.998L451.991,88.095L453.979,88.095L453.5,90.904C453.408,91.475 453.739,91.999 454.318,91.999C454.872,91.999 455.462,91.479 455.555,90.904L455.964,88.643C455.597,87.698 453.173,84.255 453.018,83.436C452.912,83.344 452.866,82.849 452.882,82.477C452.903,82.07 453.429,79.531 453.429,79.531L453.499,79.531L453.499,79.463L453.499,79.396L453.499,79.328L453.566,79.19L453.566,79.123L453.632,79.053L453.632,78.985L453.701,78.918L453.701,78.85L453.769,78.783L453.839,78.713L453.839,78.646L453.906,78.646L453.976,78.578L454.043,78.508L454.111,78.441L454.111,78.371L454.18,78.371L454.246,78.304L454.313,78.236L454.383,78.236L454.451,78.169L454.52,78.169L454.588,78.101L454.793,78.101L454.872,78.023ZM470.625,78.023L473.092,78.023L473.434,83.847L476.584,78.023L479.052,78.023L473.982,86.929L472.749,93.436L470.558,93.436L471.655,86.448L470.625,78.023ZM493.026,78.023L496.38,78.023C497.192,78.023 497.761,78.674 497.613,79.53L496.859,83.368L495.009,83.368L495.422,80.833C495.513,80.26 495.179,79.804 494.6,79.804C494.026,79.804 493.456,80.258 493.367,80.833L493.024,82.683C492.952,82.793 493.116,83.312 493.229,83.369C493.471,83.515 495.9,87.522 495.9,87.82C495.972,87.969 495.97,88.04 495.97,88.095C495.876,88.596 495.284,91.998 495.284,91.998C495.137,92.779 494.369,93.436 493.57,93.436L490.626,93.436C489.828,93.436 489.312,92.779 489.459,91.998L490.145,88.095L492.132,88.095L491.653,90.904C491.561,91.475 491.917,91.999 492.476,91.999C493.047,91.999 493.595,91.479 493.708,90.904L494.118,88.643C493.744,87.698 491.331,84.255 491.173,83.436C491.068,83.344 491.024,82.849 491.037,82.477C491.058,82.07 491.585,79.531 491.585,79.531L491.652,79.463L491.652,79.396L491.652,79.328L491.72,79.19L491.72,79.123L491.789,79.053L491.789,78.985L491.857,78.918L491.857,78.85L491.926,78.783L491.994,78.713L491.994,78.646L492.064,78.646L492.129,78.578L492.197,78.508L492.266,78.441L492.334,78.371L492.401,78.304L492.471,78.236L492.539,78.236L492.608,78.169L492.676,78.169L492.743,78.101L492.947,78.101L493.026,78.023ZM508.986,78.023L513.577,78.023L513.233,79.874L512.068,79.874L509.672,93.437L507.412,93.437L509.808,79.874L508.645,79.874L508.986,78.023ZM526.934,78.023L531.043,78.023L530.699,79.874L528.575,79.874L527.619,84.738L529.81,84.738L529.466,86.312L527.342,86.312L526.453,91.518L528.574,91.518L528.303,93.436L523.918,93.436L526.934,78.023ZM543.853,78.023L546.388,78.023L546.797,86.929L550.703,78.093L553.168,78.023L550.567,93.436L548.649,93.436L549.881,85.286L546.455,93.436L545.084,93.436L544.675,85.078L543.167,93.436L540.905,93.436L543.853,78.023ZM175.932,78.573L179.974,78.573L179.699,80.489L177.508,80.489L176.618,85.286L178.742,85.286L178.467,86.93L176.275,86.93L175.454,92.137L177.577,92.137L177.234,94.054L172.85,94.054L175.932,78.573ZM194.838,78.573L196.756,78.573L197.783,86.656L199.289,78.573L201.551,78.573L198.604,94.053L196.687,94.053L195.933,85.077L194.153,94.053L191.891,94.053L194.838,78.573ZM215.389,78.573L219.91,78.573L219.637,80.489L218.472,80.489L216.006,94.053L213.816,94.053L216.212,80.489L214.979,80.489L215.389,78.573ZM235.323,78.573L239.433,78.573L239.09,80.489L236.966,80.489L236.007,85.286L238.131,85.286L237.857,86.93L235.734,86.93L234.844,92.137L236.967,92.137L236.694,94.054L232.31,94.054L235.323,78.573ZM254.641,78.573L259.024,78.573C259.837,78.573 260.351,79.292 260.189,80.147L259.162,85.627C259.048,86.22 258.005,86.705 257.448,86.929L257.724,86.929L257.724,86.997L257.998,86.997L258.066,87.064L258.272,87.064L258.272,87.132L258.41,87.132L258.41,87.202L258.478,87.202C258.57,87.367 258.614,87.861 258.614,87.955C258.614,88.047 257.517,94.052 257.517,94.052L255.531,94.052C255.531,94.052 256.592,88.658 256.628,88.435C256.65,88.195 256.602,87.906 256.56,87.682C256.544,87.516 256.536,87.232 256.354,87.064L254.983,87.064L253.682,94.052L251.695,94.052L254.641,78.573ZM274.231,78.573L278.82,78.573L278.547,80.489L277.384,80.489L274.917,94.053L272.725,94.053L275.122,80.489L273.89,80.489L274.231,78.573ZM297.042,78.573L299.646,78.573L298.824,94.053L296.22,94.053L296.562,90.49L294.988,90.49L293.685,94.053L291.358,94.053L297.042,78.573ZM315.266,78.573L317.252,78.573L314.305,94.053L312.387,94.053L315.266,78.573ZM332.937,78.573L334.857,78.573L335.883,86.656L337.392,78.573L339.583,78.573L336.706,94.053L334.72,94.053L334.035,85.077L332.251,94.053L329.993,94.053L332.937,78.573ZM355.612,78.573L358.147,78.573L358.556,87.547L362.464,78.642L364.927,78.642L362.325,94.054L360.408,94.054L361.64,85.902L358.213,94.054L356.843,94.054L356.434,85.698L354.927,94.054L352.734,94.054L355.612,78.573ZM380.478,78.573L384.52,78.573L384.244,80.489L382.053,80.489L381.164,85.286L383.287,85.286L383.012,86.93L380.821,86.93L379.931,92.137L382.121,92.137L381.779,94.054L377.464,94.054L380.478,78.573ZM400.342,78.573L402.26,78.573L403.288,86.656L404.795,78.573L406.986,78.573L404.111,94.053L402.193,94.053L401.438,85.077L399.656,94.053L397.396,94.053L400.342,78.573ZM420.688,78.573L425.277,78.573L424.935,80.489L423.772,80.489L421.373,94.053L419.18,94.053L421.579,80.489L420.347,80.489L420.688,78.573ZM256.491,80.42C256.383,80.42 256.293,80.484 256.215,80.558L255.325,85.215C255.325,85.253 255.325,85.247 255.325,85.285C255.325,85.434 255.429,85.558 255.599,85.558L256.42,85.558C256.624,85.558 257.137,85.147 257.175,84.941L257.926,81.105C257.962,80.885 257.584,80.419 257.379,80.419L256.491,80.419L256.491,80.42ZM297.042,85.078L295.605,88.983L296.7,88.983L297.042,85.078Z" style="fill:rgb(196,0,0);fill-rule:nonzero;"/>
    </g>
</svg>
